apps/site/public/icons/companies/escape_light.svg

<svg
    class="nav_logo-svg"
    viewBox="0 0 1625 353"
    fill="none"
    xmlns="http://www.w3.org/2000/svg"
>
    <path
        d="M171.5 0C188.454 0 204.832 2.46022 220.299 7.04333C221.663 7.44743 223.122 7.37289 224.445 6.85099C237.637 1.64764 252.149 -0.654224 266.055 2.31543C286.37 6.4516 302.108 19.3322 314.312 33.2061C314.38 33.2834 314.448 33.3607 314.515 33.4379C316.112 35.2593 313.262 37.7808 311.391 36.2432C283.571 11.1874 244.467 9.77986 220.814 34.4199C219.071 36.0373 217.371 37.7026 215.71 39.4099C215.681 39.4398 215.657 39.4741 215.638 39.5114C215.597 39.5923 215.556 39.673 215.516 39.7542C215.495 39.7959 215.446 39.8162 215.402 39.8016C215.368 39.7904 215.331 39.7995 215.306 39.8253C193.689 62.2171 178.839 91.9582 166.038 121.965C138.996 187.643 122.33 258.49 110.661 328.915C109.708 334.874 108.751 341.061 107.888 347.075C107.459 350.064 104.907 352.295 101.888 352.295H32.5452C28.6931 352.295 25.8451 348.74 26.7517 344.996C29.8223 332.316 35.1246 312.078 37.3408 305.671C39.2048 300.337 41.0707 295.035 42.9437 289.76C43.6868 287.668 43.218 285.342 41.7651 283.663C15.7439 253.594 0 214.387 0 171.5C0 76.7832 76.7832 0 171.5 0ZM269.912 32.3944C271.154 32.3745 272.365 32.7799 273.365 33.5189C315.608 64.7566 343 114.929 343 171.5C343 266.217 266.217 343 171.5 343C160.307 343 149.366 341.926 138.771 339.879C135.618 339.269 133.581 336.212 134.297 333.081C136.013 325.587 138.465 318.432 141.368 311.735C142.473 309.184 145.239 307.834 147.979 308.301C155.624 309.607 163.483 310.287 171.5 310.287C248.15 310.287 310.287 248.15 310.287 171.5C310.287 120.428 282.7 75.8012 241.615 51.7033C238.045 49.6095 237.294 44.6376 240.615 42.1686C249.996 35.1944 259.608 32.5592 269.912 32.3944ZM171.5 32.7129C94.8502 32.7129 32.7129 94.8502 32.7129 171.5C32.7129 196.72 39.4399 220.369 51.1977 240.75C53.6261 244.96 59.6874 244.259 61.4487 239.729C79.8726 192.351 100.664 146.986 128.782 102.284C142.446 81.3234 157.03 60.4062 175.04 42.178C178.484 38.6925 176.4 32.7129 171.5 32.7129Z"
        fill="#000"
    ></path>
    <path
        d="M432.67 296.173C428.986 296.173 426 293.187 426 289.503V61.4973C426 57.8134 428.986 54.8269 432.67 54.8269H571.075C574.759 54.8269 577.746 57.8134 577.746 61.4973V81.945C577.746 85.6289 574.759 88.6154 571.075 88.6154H469.833C466.149 88.6154 463.162 91.6018 463.162 95.2858V151.246C463.162 154.93 466.149 157.916 469.833 157.916H561.441C565.125 157.916 568.111 160.903 568.111 164.587V185.034C568.111 188.718 565.125 191.705 561.441 191.705H469.833C466.149 191.705 463.162 194.691 463.162 198.375V255.714C463.162 259.398 466.149 262.385 469.833 262.385H572.796C576.48 262.385 579.466 265.371 579.466 269.055V289.503C579.466 293.187 576.48 296.173 572.796 296.173H432.67Z"
        fill="#000"
    ></path>
    <path
        d="M700.104 301C681.981 301 665.924 297.782 651.93 291.346C637.937 284.91 626.926 275.486 618.897 263.074C611.098 250.432 607.198 235.147 607.198 217.218V215.269C607.198 211.585 610.185 208.599 613.868 208.599H637.346C641.03 208.599 644.016 211.585 644.016 215.269V217.218C644.016 234.228 649.063 246.984 659.156 255.489C669.479 263.994 683.128 268.246 700.104 268.246C717.308 268.246 730.269 264.683 738.986 257.558C747.703 250.202 752.062 240.778 752.062 229.286C752.062 221.701 749.997 215.495 745.868 210.668C741.739 205.841 735.889 202.048 728.319 199.29C720.749 196.302 711.688 193.544 701.136 191.015L688.404 187.912C673.035 184.234 659.615 179.752 648.145 174.466C636.905 168.949 628.188 161.709 621.994 152.745C615.8 143.78 612.704 132.288 612.704 118.266C612.704 104.016 616.145 91.8333 623.026 81.7198C630.138 71.6062 639.887 63.7912 652.274 58.2747C664.662 52.7582 679.229 50 695.974 50C712.72 50 727.631 52.8732 740.707 58.6195C754.012 64.3658 764.449 72.8704 772.019 84.1333C779.589 95.3961 783.375 109.532 783.375 126.541V132.283C783.375 135.967 780.388 138.953 776.704 138.953H753.227C749.543 138.953 746.556 135.967 746.556 132.283V126.541C746.556 116.198 744.377 107.808 740.019 101.372C735.889 94.9364 730.04 90.2244 722.47 87.2363C714.9 84.2482 706.068 82.7541 695.974 82.7541C681.293 82.7541 669.823 85.8572 661.565 92.0632C653.536 98.0394 649.522 106.429 649.522 117.232C649.522 124.587 651.242 130.679 654.683 135.505C658.353 140.103 663.63 143.895 670.511 146.883C677.393 149.871 685.996 152.515 696.319 154.813L709.05 157.916C724.649 161.364 738.413 165.846 750.341 171.363C762.27 176.649 771.675 183.89 778.557 193.084C785.439 202.278 788.88 214.115 788.88 228.596C788.88 243.077 785.21 255.719 777.869 266.522C770.758 277.325 760.55 285.83 747.245 292.036C733.94 298.012 718.226 301 700.104 301Z"
        fill="#000"
    ></path>
    <path
        d="M917.356 301C887.994 301 864.71 292.725 847.505 276.176C830.3 259.396 821.698 235.262 821.698 203.772V147.228C821.698 115.738 830.3 91.7184 847.505 75.169C864.71 58.3897 887.994 50 917.356 50C946.26 50 968.512 58.0449 984.111 74.1346C999.939 90.2244 1007.85 112.175 1007.85 139.988C1007.85 141.13 1006.93 142.056 1005.78 142.056H974.138C972.424 142.056 971.035 140.667 971.035 138.953C971.035 122.634 966.562 109.302 957.615 98.9588C948.898 88.6154 935.479 83.4437 917.356 83.4437C899.005 83.4437 884.667 89.0751 874.345 100.338C864.022 111.371 858.86 126.771 858.86 146.538V204.462C858.86 223.999 864.022 239.399 874.345 250.662C884.667 261.925 899.005 267.556 917.356 267.556C935.479 267.556 948.898 262.385 957.615 252.041C966.562 241.468 971.035 228.136 971.035 212.047C971.035 208.81 973.659 206.185 976.896 206.185H1003.03C1005.69 206.185 1007.85 208.347 1007.85 211.012C1007.85 238.825 999.939 260.776 984.111 276.865C968.512 292.955 946.26 301 917.356 301Z"
        fill="#000"
    ></path>
    <path
        d="M1037.59 296.173C1033.16 296.173 1029.96 291.934 1031.18 287.674L1096.19 59.6682C1097.01 56.8029 1099.63 54.8269 1102.61 54.8269H1157.91C1160.89 54.8269 1163.51 56.8072 1164.33 59.6767L1229.02 287.682C1230.23 291.94 1227.03 296.173 1222.6 296.173H1198.3C1195.3 296.173 1192.68 294.176 1191.87 291.291L1178.76 244.167C1177.96 241.281 1175.33 239.284 1172.34 239.284H1088.19C1085.19 239.284 1082.57 241.281 1081.76 244.167L1068.65 291.291C1067.85 294.176 1065.22 296.173 1062.22 296.173H1037.59ZM1094.75 196.357C1093.57 200.606 1096.77 204.806 1101.18 204.806H1159.35C1163.75 204.806 1166.95 200.606 1165.78 196.358L1133.75 80.5803C1133.32 79.0127 1131.89 77.9272 1130.26 77.9272C1128.64 77.9272 1127.21 79.0127 1126.78 80.5803L1094.75 196.357Z"
        fill="#000"
    ></path>
    <path
        d="M1270.73 296.173C1267.04 296.173 1264.06 293.187 1264.06 289.503V61.4973C1264.06 57.8134 1267.04 54.8269 1270.73 54.8269H1359.72C1374.4 54.8269 1387.47 57.815 1398.94 63.7912C1410.64 69.5375 1419.7 77.8123 1426.13 88.6154C1432.78 99.1886 1436.11 111.946 1436.11 126.886V131.368C1436.11 146.309 1432.66 159.18 1425.78 169.984C1419.13 180.787 1410.07 189.061 1398.6 194.808C1387.13 200.554 1374.17 203.427 1359.72 203.427H1307.89C1304.21 203.427 1301.22 206.414 1301.22 210.098V289.503C1301.22 293.187 1298.23 296.173 1294.55 296.173H1270.73ZM1301.22 162.968C1301.22 166.652 1304.21 169.639 1307.89 169.639H1355.93C1369.01 169.639 1379.44 166.191 1387.24 159.295C1395.04 152.4 1398.94 142.976 1398.94 131.023V127.576C1398.94 115.393 1395.04 105.854 1387.24 98.9588C1379.44 92.0632 1369.01 88.6154 1355.93 88.6154H1307.89C1304.21 88.6154 1301.22 91.6018 1301.22 95.2858V162.968Z"
        fill="#000"
    ></path>
    <path
        d="M1478.06 296.173C1474.38 296.173 1471.39 293.187 1471.39 289.503V61.4973C1471.39 57.8134 1474.38 54.8269 1478.06 54.8269L1616.46 54.8269C1620.15 54.8269 1623.13 57.8134 1623.13 61.4973V81.945C1623.13 85.6289 1620.15 88.6154 1616.46 88.6154H1515.22C1511.54 88.6154 1508.55 91.6018 1508.55 95.2858V151.246C1508.55 154.93 1511.54 157.916 1515.22 157.916H1606.83C1610.51 157.916 1613.5 160.903 1613.5 164.587V185.034C1613.5 188.718 1610.51 191.705 1606.83 191.705H1515.22C1511.54 191.705 1508.55 194.691 1508.55 198.375V255.714C1508.55 259.398 1511.54 262.385 1515.22 262.385H1618.18C1621.87 262.385 1624.86 265.371 1624.86 269.055V289.503C1624.86 293.187 1621.87 296.173 1618.18 296.173H1478.06Z"
        fill="#000"
    ></path>
</svg>

<svg xmlns="http://www.w3.org/2000/svg" fill="none" class="nav_logo-svg" viewBox="0 0 1625 353"><path fill="#000" d="M171.5 0c16.954 0 33.332 2.46 48.799 7.043a6.37 6.37 0 0 0 4.146-.192c13.192-5.203 27.704-7.505 41.61-4.536 20.315 4.137 36.053 17.017 48.257 30.891l.203.232c1.597 1.821-1.253 4.343-3.124 2.805-27.82-25.056-66.924-26.463-90.577-1.823a140 140 0 0 0-5.104 4.99.4.4 0 0 0-.072.101l-.122.243a.095.095 0 0 1-.114.048.09.09 0 0 0-.096.023c-21.617 22.392-36.467 52.133-49.268 82.14-27.042 65.678-43.708 136.525-55.377 206.95-.953 5.959-1.91 12.146-2.773 18.16-.429 2.989-2.981 5.22-6 5.22H32.545c-3.852 0-6.7-3.555-5.793-7.299 3.07-12.68 8.373-32.918 10.589-39.325q2.795-8 5.603-15.911c.743-2.092.274-4.418-1.179-6.097C15.744 253.594 0 214.387 0 171.5 0 76.783 76.783 0 171.5 0m98.412 32.394a5.67 5.67 0 0 1 3.453 1.125C315.608 64.757 343 114.929 343 171.5c0 94.717-76.783 171.5-171.5 171.5a172.4 172.4 0 0 1-32.729-3.121c-3.153-.61-5.19-3.667-4.474-6.798 1.716-7.494 4.168-14.649 7.071-21.346 1.105-2.551 3.871-3.901 6.611-3.434a139.6 139.6 0 0 0 23.521 1.986c76.65 0 138.787-62.137 138.787-138.787 0-51.072-27.587-95.699-68.672-119.797-3.57-2.094-4.321-7.065-1-9.534 9.381-6.975 18.993-9.61 29.297-9.775m-98.412.319C94.85 32.713 32.713 94.85 32.713 171.5c0 25.22 6.727 48.869 18.485 69.25 2.428 4.21 8.49 3.509 10.25-1.021 18.425-47.378 39.216-92.743 67.334-137.445 13.664-20.96 28.248-41.878 46.258-60.106 3.444-3.485 1.36-9.465-3.54-9.465m261.17 263.46a6.67 6.67 0 0 1-6.67-6.67V61.497a6.67 6.67 0 0 1 6.67-6.67h138.405a6.67 6.67 0 0 1 6.671 6.67v20.448a6.67 6.67 0 0 1-6.671 6.67H469.833a6.67 6.67 0 0 0-6.671 6.67v55.961a6.67 6.67 0 0 0 6.671 6.67h91.608a6.67 6.67 0 0 1 6.67 6.671v20.447a6.67 6.67 0 0 1-6.67 6.671h-91.608a6.67 6.67 0 0 0-6.671 6.67v57.339a6.67 6.67 0 0 0 6.671 6.671h102.963a6.67 6.67 0 0 1 6.67 6.67v20.448a6.67 6.67 0 0 1-6.67 6.67zM700.104 301q-27.184 0-48.174-9.654t-33.033-28.272q-11.699-18.963-11.699-45.856v-1.949a6.67 6.67 0 0 1 6.67-6.67h23.478a6.67 6.67 0 0 1 6.67 6.67v1.949q0 25.514 15.14 38.271 15.484 12.757 40.948 12.757 25.806 0 38.882-10.688 13.076-11.034 13.076-28.272 0-11.377-6.194-18.618t-17.549-11.378q-11.355-4.482-27.183-8.275l-12.732-3.103q-23.054-5.517-40.259-13.446-16.86-8.275-26.151-21.721-9.29-13.447-9.29-34.479 0-21.376 10.322-36.546 10.668-15.171 29.248-23.445Q670.856 50 695.974 50t44.733 8.62q19.957 8.619 31.312 25.513t11.356 42.408v5.742a6.67 6.67 0 0 1-6.671 6.67h-23.477a6.67 6.67 0 0 1-6.671-6.67v-5.742q0-15.515-6.537-25.169-6.195-9.654-17.549-14.136-11.355-4.482-26.496-4.482-22.022 0-34.409 9.31-12.043 8.963-12.043 25.168 0 11.033 5.161 18.273 5.506 6.897 15.828 11.378 10.323 4.483 25.808 7.93l12.731 3.103q23.399 5.172 41.291 13.447 17.893 7.93 28.216 21.721 10.323 13.79 10.323 35.512 0 21.721-11.011 37.926-10.666 16.205-30.624 25.514Q727.287 301 700.104 301m217.252 0q-44.043 0-69.851-24.824-25.807-25.17-25.807-72.404v-56.544q0-47.235 25.807-72.059Q873.313 49.999 917.356 50q43.356 0 66.755 24.135 23.74 24.134 23.739 65.853c0 1.142-.92 2.068-2.07 2.068h-31.642a3.103 3.103 0 0 1-3.103-3.103q0-24.479-13.42-39.994-13.075-15.516-40.259-15.515-27.527 0-43.011 16.894-15.485 16.55-15.485 46.2v57.924q0 29.305 15.485 46.2 15.484 16.894 43.011 16.894 27.184 0 40.259-15.515 13.42-15.86 13.42-39.994a5.86 5.86 0 0 1 5.861-5.862h26.134c2.66 0 4.82 2.162 4.82 4.827q.002 41.72-23.739 65.853Q960.712 301 917.356 301m120.234-4.827c-4.43 0-7.63-4.239-6.41-8.499l65.01-228.006a6.68 6.68 0 0 1 6.42-4.841h55.3c2.98 0 5.6 1.98 6.42 4.85l64.69 228.005c1.21 4.258-1.99 8.491-6.42 8.491h-24.3c-3 0-5.62-1.997-6.43-4.882l-13.11-47.124a6.665 6.665 0 0 0-6.42-4.883h-84.15c-3 0-5.62 1.997-6.43 4.883l-13.11 47.124a6.67 6.67 0 0 1-6.43 4.882zm57.16-99.816c-1.18 4.249 2.02 8.449 6.43 8.449h58.17c4.4 0 7.6-4.2 6.43-8.448L1133.75 80.58a3.615 3.615 0 0 0-6.97 0zm175.98 99.816a6.666 6.666 0 0 1-6.67-6.67V61.497c0-3.684 2.98-6.67 6.67-6.67h88.99c14.68 0 27.75 2.988 39.22 8.964 11.7 5.746 20.76 14.021 27.19 24.824 6.65 10.574 9.98 23.331 9.98 38.271v4.482c0 14.941-3.45 27.812-10.33 38.616q-9.975 16.204-27.18 24.824-17.205 8.619-38.88 8.619h-51.83a6.673 6.673 0 0 0-6.67 6.671v79.405c0 3.684-2.99 6.67-6.67 6.67zm30.49-133.205a6.673 6.673 0 0 0 6.67 6.671h48.04c13.08 0 23.51-3.448 31.31-10.344q11.7-10.343 11.7-28.272v-3.447q0-18.275-11.7-28.617c-7.8-6.896-18.23-10.344-31.31-10.344h-48.04a6.673 6.673 0 0 0-6.67 6.67zm176.84 133.205a6.67 6.67 0 0 1-6.67-6.67V61.497c0-3.684 2.99-6.67 6.67-6.67h138.4c3.69 0 6.67 2.986 6.67 6.67v20.448c0 3.684-2.98 6.67-6.67 6.67h-101.24a6.673 6.673 0 0 0-6.67 6.67v55.961c0 3.684 2.99 6.67 6.67 6.67h91.61c3.68 0 6.67 2.987 6.67 6.671v20.447a6.673 6.673 0 0 1-6.67 6.671h-91.61a6.67 6.67 0 0 0-6.67 6.67v57.339a6.673 6.673 0 0 0 6.67 6.671h102.96c3.69 0 6.68 2.986 6.68 6.67v20.448c0 3.684-2.99 6.67-6.68 6.67z"/></svg>
